!!!ONB: MCCC : ICD0004_01 : Extracted Monophonic Melody
!!!COM: Debussy, Claude
!!!OPR: Deux Arabesques
!!!OMV: 1
!!!SCT: CD 74 ; L.66
!!!ODT: 1890///
**kern
*staff1
*IPiano
=1
*clefG2
*k[f#c#g#d#]
*E:
*M4/4
12c#
12e
12a
12cc#
12ee
12ff#
12gg#
12dd#
12b
12g#
12d#
12B
=2
12A
12c#
12f#
12a
12cc#
12dd#
12ee
12b
12g#
12e
12B
12G#
=3
4r
12cc#
12f#
12a
4ff#
12cc#
12cc#
12a
=4
4cc#]
12cc#
12f#
12a
4ff#
12aa
12a
12cc#
=5
4aa]
[2aa
12aa]
12gg#
12ff#
=6
4r
12ee
12ff#
12cc#
12ee
12b
12cc#
12g#
12b
12f#
=7
12g#
12e
12g#
2d#
4c#
=8
8B
8r
12ee
12ff#
12cc#
12ee
12b
12cc#
12g#
12b
12f#
=9
12g#
12e
12g#
2d#
4c#
=10
12B
12A
12B
4c#[
8c#]
8e
8d#
8e
=11
4c#
2g#
4e
=12
12d#
12c#
12d#
4e[
8e]
8g#
8f#
8g#
=13
4e
2cc#
12a#
12cc#
12a#
=14
4g#
2ee
12cc#
12ee
12cc#
=15
4.gg#
8ff#
4.gg#
8ff#
=16
4.gg#
8ff#
8gg#
4ff#
8gg#
=17
2aa
12cc#
12ee
12ff#
12gg#
12dd#
12b
=18
2ff#
12a
12cc#
12dd#
12ee
12b
12g#
=19
2dd#
4ee
8gg#
8bb
=20
2dd#[
8dd#]
8cc#
8ee
8gg#
=21
2b[
8b]
8a
8cc#
8ee
=22
2g#
12r
12a
12cc#
12ee
12gg#
12ff#
=23
4dd#
4g#
8r
8f#
8a
8cc#
=24
2e
12r
12f#
12a
12cc#
12ee
12dd
=25
4g#
2f#
4d
=26
1c#
12E
12G
12A
12B
12A
12E
12G
12A
12B
12A
=27
4c#]
4c#
4e
4c#
=28
1f#[
=29
4f#]
4f#
4a
4f#
=30
4b
4g#
4b
4g#
=31
1cc#
12e
12f#
12a
12g#
12f#
=32
4cc#]
4a
4b
4cc#
=33
1cc#
12e
12f#
12a
12g#
12f#
=34
4cc#]
4a
4b
4cc#
=35
4dd#
4ee
4ff#
4gg#
=36
4aa
4bb
4ccc#
4ddd#
=37
2fff#
2eee
=38
1ee
=39
*k[f#c#g#]
*A:
12ee
12dd
12ee
4cc#[
8cc#]
8b
8b
8cc#
=40
4a
2f#
4g#
=41
8f#
8e
2ff#
4ee
=42
8f#
8e
4gg#[
8gg#]
8bb
8aa
8ff#
=43
12ee
12dd
12ee
4cc#[
8cc#]
8b
8b
8cc#
=44
4a
4f#[
8f#]
8f#
8f#
8g#
=45
12f#
12e
12B
2c#
4e
=46
2.e
4r
=47
12D
12F#
12A
12c#
12B
12A
12G#
12B
12d
12f#
12e
12d
=48
12c#
12e
12g#
12b
12a
12g#
12f#
12a
12cc#
12ee
12dd
12cc#
=49
12b
12dd
12ff#
[4aa
8aa]
8gg#
8ff#
8ee
=50
8ff#
8ee
8dd
8cc#
8dd
8cc#
8b
8a
=51
12D
12F#
12A
12c#
12B
12A
12G#
12B
12d
12f#
12e
12d
=52
12c#
12e
12g#
12b
12a
12g#
12f#
12a
12cc#
12ee
12dd
12cc#
=53
12b
12dd
12ff#
[4aa
8aa]
8gg#
8ff#
8gg#
=54
12b
12dd
12ff#
[4aa
8aa]
8gg#
8ff#
8gg#
=55
12ee
12dd
12ee
4cc#[
8cc#]
8b
8b
8cc#
=56
4a
2f#
4g#
=57
8f#
8e
2ff#
4ee
=58
8f#
8e
4gg#[
8gg#]
8bb
8aa
8ff#
=59
12ee
12dd
12ee
4cc#[
8cc#]
8b
8b
8cc#
=60
4a
4f#[
8f#]
8f#
8f#
8g#
=61
12f#
12e
12B
2c#
4e
=62
2.e
4r
=63
12g
12f
12g
2e
4d
=64
4c
2G
4c
=65
4d
4f
4g
8a
8cc
=66
2dd
2g
=67
[12gg
12gg]
12gg
2ee
4dd
=68
2ee
2ff
=69
[12gg
12gg]
12gg
2ee
4gg
=70
12gg#
12ff#
12gg#
2ee
4gg#
=71
*k[f#c#g#d#]
*E:
2aa
12gg#
12dd#
12b
=72
2ff#
12a
12cc#
12dd#
12ee
12b
12g#
=73
4r
12cc#
12f#
12a
4ff#
12cc#
12cc#
12a
=74
4cc#]
12cc#
12f#
12a
4ff#
12aa
12a
12cc#
=75
4aa]
[2aa
12aa]
12gg#
12ff#
=76
4r
12ee
12ff#
12cc#
12ee
12b
12cc#
12g#
12b
12f#
=77
12g#
12e
12g#
2d#
4c#
=78
4B
12ee
12ff#
12cc#
12ee
12b
12cc#
12g#
12b
12f#
=79
12g#
12e
12g#
2d#
4c#
=80
12B
12A
12B
4c#[
8c#]
8e
8d#
8e
=81
4c#
2g#
4e
=82
12d#
12c#
12d#
4e[
8e]
8g#
8f#
8g#
=83
4e
2cc#
12a#
12cc#
12a#
=84
4g#
2ee
12cc#
12ee
12cc#
=85
4.gg#
8ff#
4.gg#
8ff#
=86
4.gg#
8ff#
8gg#
4ff#
8gg#
=87
2aa
12cc#
12ee
12ff#
12gg#
12dd#
12b
=88
2ff#
12a
12cc#
12dd#
12ee
12b
12g#
=89
4aa
8bb
8ccc#
8aa
8gg#
8aa
8gg#[
=90
4gg#]
4ff#[
4ff#]
4ee[
=91
8ee]
8dd
8ee
8ff#
8dd
8cc#
8dd
8cc#[
=92
4cc#]
2b
4a[
=93
8a]
8g#
8a
8g#
8cc#
8a
[4f#
=94
*M2/4
8f#]
8e
8f#
8e
=95
*M4/4
[1a
12a]
12a
12b
12cc#
12ee
=96
12aa
12bb
12ccc#
12eee
12ccc#
12bb
12aa
12ee
12cc#
12b
12a
12e
=97
1g#
12d#
12g#
12b
12dd#
12gg#
12bb
12b
=98
1f#
12d#
12a
12b
12dd#
12aa
12bb
12b
=99
4e
12eee
12fff#
12ccc#
12eee
12bb
12ccc#
12gg#
12bb
12ff#
=100
12gg#
12ee
12gg#
2dd#
4cc#
=101
4b
12ee
12ff#
12cc#
12ee
12b
12cc#
12g#
12b
12f#
=102
12g#
12e
12g#
2d#
4c#
=103
12r
12B
12r
12c#
12r
12e
12r
12f#
12c#
=104
12r
12b
12e
12r
12cc#
12g#
12r
12ee
12b
12r
12ff#
12cc#
=105
12r
12bb
12ee
12r
12ccc#
12gg#
12r
12eee
12bb
12r
12fff#
12ccc#
=106
4ggg#
2ggg#
4ggg#
=107
4e
4r
2r
==
*-
